X:14099
T:Reel Beatrice
M:C|
L:1/8
Q:240
R:reel
A:Quebec
K:A min
A,B, | C2 A,C EA,CE | AEED EGAB | c2 Ac eAce | aeea e2 ab |
c'bag fedc | BddB d3  f | e2 ef edBc |1 A4    A,2  :|2 A4     A3   ||:
a | a2 fa bffe | fe^de ae (3eee | e2 ^de fee=d | cdcB A3   a |
a2 fa bffe | fe^de ae (3eee | e2 ef e=dBc |1 A4    A3   :|2 A4     A2  |
|:
AB | cG (3GGG EGce | cG (3GGG EGce | dB (3BBB GBdB | cc'ba gfed |
cG (3GGG EGce | cG (3GGG EGce | dB (3BBB GBdB | cBcd c2  :||


